src/lib/packages/icons/src/assets/line/message-clock.svg

<svg xmlns="http://www.w3.org/2000/svg" width="24" height="24" fill="none"><path fill="currentColor" d="M3 21.75a.75.75 0 0 1-.75-.75V6c0-2.418 1.332-3.75 3.75-3.75h12c2.418 0 3.75 1.332 3.75 3.75v9c0 2.418-1.332 3.75-3.75 3.75H6.311l-2.78 2.78a.75.75 0 0 1-.531.22Zm3-18c-1.577 0-2.25.673-2.25 2.25v13.189l1.72-1.72a.749.749 0 0 1 .53-.22h12c1.577 0 2.25-.673 2.25-2.25v-9c0-1.577-.673-2.25-2.25-2.25H6v.001Zm6 11.5a4.756 4.756 0 0 1-4.75-4.75A4.756 4.756 0 0 1 12 5.75a4.756 4.756 0 0 1 4.75 4.75A4.756 4.756 0 0 1 12 15.25Zm0-8a3.254 3.254 0 0 0-3.25 3.25A3.254 3.254 0 0 0 12 13.75a3.254 3.254 0 0 0 3.25-3.25A3.254 3.254 0 0 0 12 7.25Zm1.53 4.78a.75.75 0 0 0 0-1.061l-.78-.78V9a.75.75 0 0 0-1.5 0v1.5c0 .199.079.39.22.53l1 1a.748.748 0 0 0 1.06 0Z"/></svg>

<svg width="24" height="24" viewBox="0 0 24 24" fill="none" xmlns="http://www.w3.org/2000/svg">
<path d="M3 21.75C2.903 21.75 2.80589 21.731 2.71289 21.693C2.43289 21.577 2.25 21.303 2.25 21V6C2.25 3.582 3.582 2.25 6 2.25H18C20.418 2.25 21.75 3.582 21.75 6V15C21.75 17.418 20.418 18.75 18 18.75H6.31104L3.53101 21.53C3.38701 21.674 3.195 21.75 3 21.75ZM6 3.75C4.423 3.75 3.75 4.423 3.75 6V19.189L5.46997 17.469C5.61097 17.328 5.801 17.249 6 17.249H18C19.577 17.249 20.25 16.576 20.25 14.999V5.99902C20.25 4.42202 19.577 3.74902 18 3.74902H6V3.75ZM12 15.25C9.381 15.25 7.25 13.119 7.25 10.5C7.25 7.881 9.381 5.75 12 5.75C14.619 5.75 16.75 7.881 16.75 10.5C16.75 13.119 14.619 15.25 12 15.25ZM12 7.25C10.208 7.25 8.75 8.708 8.75 10.5C8.75 12.292 10.208 13.75 12 13.75C13.792 13.75 15.25 12.292 15.25 10.5C15.25 8.708 13.792 7.25 12 7.25ZM13.53 12.03C13.823 11.737 13.823 11.262 13.53 10.969L12.75 10.189V9C12.75 8.586 12.414 8.25 12 8.25C11.586 8.25 11.25 8.586 11.25 9V10.5C11.25 10.699 11.329 10.89 11.47 11.03L12.47 12.03C12.616 12.176 12.808 12.25 13 12.25C13.192 12.25 13.384 12.177 13.53 12.03Z" fill="currentColor"/>
</svg>
